bpm 135

d1
$ whenmod 4 3 (# coarse 20)
$ sometimesBy 0.05 (slow 2)
$ struct "1(<11 13 15>,16)" $ s "goldeneye" +| n (run 16) + 1

d2
$ whenmod 1 0 (# coarse 20)
$ struct "1(7,16)" $ s "ff1"

d3
$ struct "1 _ _ 1 _ _ 1 _"
$ s "hard" # n "c2"
# accelerate "-2 0 2"
# lowhi "2 200 2" # coarse 20 # crush 3

d4
$ whenmod 8 7 (# hpf 1000)
$ whenmod 4 3 (# coarse 20)
$ loopLength 16 16 $ s "freak-vocals"
# n "2"

d5 $ loopLength 8 8 $ s "i-wud-never"

d6 $ s "~ snare ~ snare"
